svgs/kvaesitso.svg

<svg xmlns="http://www.w3.org/2000/svg" viewBox="0 0 192 192"><path d="M28.179 144.77c.022-31.154.026-31.236 1.769-33.714.961-1.366 3.28-3.291 5.153-4.278l3.406-1.794h114.986l3.406 1.794c1.873.987 4.192 2.912 5.153 4.278 1.743 2.478 1.747 2.56 1.769 33.714l.022 31.23h-4.706v-29.909c0-19.801-.282-30.452-.836-31.516-1.19-2.283-3.77-4.157-7.399-5.376-2.95-.99-6.231-1.053-54.902-1.053s-51.952.063-54.902 1.053c-3.629 1.219-6.209 3.093-7.399 5.376-.554 1.064-.836 11.715-.836 31.516V176h-4.706ZM38.89 98.422c-3.636-.806-7.281-3.201-9.059-5.951-1.534-2.374-1.673-3.532-1.661-13.862.012-10.611.115-11.403 1.764-13.5 2.27-2.886 6.659-5.429 10.482-6.074 3.961-.668 107.207-.668 111.168 0 3.823.645 8.212 3.188 10.482 6.074 1.653 2.103 1.751 2.869 1.742 13.636-.009 10.769-.11 11.552-1.811 13.975-1.027 1.463-3.239 3.303-5.143 4.278l-3.341 1.711-56.208.101c-30.914.056-57.2-.119-58.415-.388Zm111.699-2.927c1.466-.357 3.68-1.319 4.919-2.139 3.893-2.576 4.414-4.282 4.414-14.472 0-8.529-.148-9.519-1.765-11.821-.971-1.381-2.761-3.04-3.979-3.686-2.187-1.159-2.924-1.174-58.178-1.174s-55.991.015-58.178 1.174c-1.218.646-3.008 2.305-3.979 3.686-1.617 2.302-1.765 3.292-1.765 11.821 0 10.188.519 11.89 4.414 14.478 1.239.824 3.312 1.766 4.606 2.094 3.431.87 105.922.906 109.491.039ZM43.451 91.942c-1.294-.433-3.235-1.482-4.314-2.331-1.885-1.483-1.97-1.878-2.209-10.199-.238-8.297-.172-8.739 1.598-10.651 2.903-3.136 5.217-3.682 16.509-3.894 8.832-.166 10.409-.049 13.35.986 5.44 1.915 6.046 3.207 6.046 12.866 0 12.897-.94 13.636-17.647 13.862-8.047.109-11.609-.061-13.333-.639Zm22.49-4.001c3.036-1.447 3.784-3.339 3.784-9.565v-5.734l-2.666-1.94-2.667-1.939h-8.6c-7.363 0-8.882.161-10.56 1.121-3.136 1.794-3.925 3.954-3.623 9.925.243 4.801.488 5.572 2.191 6.889 1.055.816 2.996 1.728 4.314 2.027 3.729.845 15.494.327 17.827-.784Zm17.174 3.78c-5.174-1.919-5.906-3.311-6.209-11.813-.239-6.688-.079-7.914 1.338-10.244C80.655 65.7 83.956 64.795 96 64.795s15.345.905 17.756 4.869c1.417 2.33 1.577 3.556 1.338 10.244-.235 6.597-.484 7.808-1.895 9.206-3.025 2.998-5.919 3.604-17.199 3.604-8.159 0-10.733-.199-12.885-.997Zm21.435-3.219c4.506-1.369 5.175-2.652 5.175-9.928 0-6.398-.027-6.497-2.292-8.144-2.272-1.652-2.376-1.667-11.433-1.667s-9.161.015-11.433 1.667c-2.265 1.647-2.292 1.746-2.292 8.144 0 7.212.666 8.532 5.002 9.904 3.238 1.025 13.931 1.04 17.273.024Zm20.502 3.802c-2.574-.475-5.151-1.95-6.347-3.633-.841-1.182-1.136-3.773-1.136-9.952 0-9.659.606-10.951 6.046-12.866 2.941-1.035 4.518-1.152 13.35-.986 10.924.205 13.401.741 16.219 3.51 1.501 1.474 1.64 2.375 1.64 10.649 0 8.849-.042 9.071-1.961 10.584-3.31 2.609-6.083 3.117-16.642 3.044-5.298-.036-10.324-.194-11.169-.35Zm20.377-3.906c3.777-1.304 5.081-3.756 5.081-9.559 0-8.677-2.033-10.071-14.694-10.074-7.76-.002-8.111.053-10.588 1.661-2.541 1.651-2.563 1.71-2.826 7.633-.306 6.894.72 9.105 4.825 10.404 3.54 1.119 14.887 1.079 18.202-.065ZM21.49 55.893C17.402 54.39 16 52.408 16 48.127c0-5.083 1.184-6.121 11.373-9.979 4.529-1.715 16.176-6.151 25.882-9.858 9.706-3.708 21-7.989 25.098-9.515L85.804 16h20.392l6.667 2.48c3.666 1.363 15.49 5.84 26.274 9.947l26.667 10.153C174.775 41.993 176 43.14 176 48.127c0 2.912-.369 4.174-1.569 5.359-2.126 2.1-5.788 3.298-10.081 3.298-3.841 0-4.417-.199-41.291-14.276-24.57-9.379-26.137-9.904-28.326-9.487-1.029.196-10.341 3.591-20.694 7.545C31.724 56.725 31.551 56.785 27.55 56.771c-2.039-.007-4.766-.402-6.06-.878Zm18.334-6.041C91.689 30.046 91.891 29.975 96 29.975c4.109 0 4.311.071 56.176 19.877 5.877 2.244 11.607 4.08 12.733 4.08 1.15 0 3.161-.724 4.59-1.653 2.071-1.345 2.544-2.079 2.544-3.947 0-1.454-.546-2.733-1.491-3.492-1.31-1.053-9.901-4.456-44.748-17.724-23.431-8.922-21.055-8.263-29.804-8.263-8.749 0-6.373-.659-29.804 8.263C31.349 40.384 22.758 43.787 21.448 44.84c-.945.759-1.491 2.038-1.491 3.492 0 1.868.473 2.602 2.544 3.947 1.429.929 3.44 1.653 4.59 1.653 1.126 0 6.856-1.836 12.733-4.08Z"/></svg>

<svg
    xmlns="http://www.w3.org/2000/svg"
    viewBox="0 0 192 192"
    id="vector">
    <path
        id="path"
        d="M 28.179 144.77 C 28.201 113.616 28.205 113.534 29.948 111.056 C 30.909 109.69 33.228 107.765 35.101 106.778 L 38.507 104.984 L 153.493 104.984 L 156.899 106.778 C 158.772 107.765 161.091 109.69 162.052 111.056 C 163.795 113.534 163.799 113.616 163.821 144.77 L 163.843 176 L 159.137 176 L 159.137 146.091 C 159.137 126.29 158.855 115.639 158.301 114.575 C 157.111 112.292 154.531 110.418 150.902 109.199 C 147.952 108.209 144.671 108.146 96 108.146 C 47.329 108.146 44.048 108.209 41.098 109.199 C 37.469 110.418 34.889 112.292 33.699 114.575 C 33.145 115.639 32.863 126.29 32.863 146.091 L 32.863 176 L 28.157 176 Z M 38.89 98.422 C 35.254 97.616 31.609 95.221 29.831 92.471 C 28.297 90.097 28.158 88.939 28.17 78.609 C 28.182 67.998 28.285 67.206 29.934 65.109 C 32.204 62.223 36.593 59.68 40.416 59.035 C 44.377 58.367 147.623 58.367 151.584 59.035 C 155.407 59.68 159.796 62.223 162.066 65.109 C 163.719 67.212 163.817 67.978 163.808 78.745 C 163.799 89.514 163.698 90.297 161.997 92.72 C 160.97 94.183 158.758 96.023 156.854 96.998 L 153.513 98.709 L 97.305 98.81 C 66.391 98.866 40.105 98.691 38.89 98.422 Z M 150.589 95.495 C 152.055 95.138 154.269 94.176 155.508 93.356 C 159.401 90.78 159.922 89.074 159.922 78.884 C 159.922 70.355 159.774 69.365 158.157 67.063 C 157.186 65.682 155.396 64.023 154.178 63.377 C 151.991 62.218 151.254 62.203 96 62.203 C 40.746 62.203 40.009 62.218 37.822 63.377 C 36.604 64.023 34.814 65.682 33.843 67.063 C 32.226 69.365 32.078 70.355 32.078 78.884 C 32.078 89.072 32.597 90.774 36.492 93.362 C 37.731 94.186 39.804 95.128 41.098 95.456 C 44.529 96.326 147.02 96.362 150.589 95.495 Z M 43.451 91.942 C 42.157 91.509 40.216 90.46 39.137 89.611 C 37.252 88.128 37.167 87.733 36.928 79.412 C 36.69 71.115 36.756 70.673 38.526 68.761 C 41.429 65.625 43.743 65.079 55.035 64.867 C 63.867 64.701 65.444 64.818 68.385 65.853 C 73.825 67.768 74.431 69.06 74.431 78.719 C 74.431 91.616 73.491 92.355 56.784 92.581 C 48.737 92.69 45.175 92.52 43.451 91.942 Z M 65.941 87.941 C 68.977 86.494 69.725 84.602 69.725 78.376 L 69.725 72.642 L 67.059 70.702 L 64.392 68.763 L 55.792 68.763 C 48.429 68.763 46.91 68.924 45.232 69.884 C 42.096 71.678 41.307 73.838 41.609 79.809 C 41.852 84.61 42.097 85.381 43.8 86.698 C 44.855 87.514 46.796 88.426 48.114 88.725 C 51.843 89.57 63.608 89.052 65.941 87.941 Z M 83.115 91.721 C 77.941 89.802 77.209 88.41 76.906 79.908 C 76.667 73.22 76.827 71.994 78.244 69.664 C 80.655 65.7 83.956 64.795 96 64.795 C 108.044 64.795 111.345 65.7 113.756 69.664 C 115.173 71.994 115.333 73.22 115.094 79.908 C 114.859 86.505 114.61 87.716 113.199 89.114 C 110.174 92.112 107.28 92.718 96 92.718 C 87.841 92.718 85.267 92.519 83.115 91.721 Z M 104.55 88.502 C 109.056 87.133 109.725 85.85 109.725 78.574 C 109.725 72.176 109.698 72.077 107.433 70.43 C 105.161 68.778 105.057 68.763 96 68.763 C 86.943 68.763 86.839 68.778 84.567 70.43 C 82.302 72.077 82.275 72.176 82.275 78.574 C 82.275 85.786 82.941 87.106 87.277 88.478 C 90.515 89.503 101.208 89.518 104.55 88.502 Z M 125.052 92.304 C 122.478 91.829 119.901 90.354 118.705 88.671 C 117.864 87.489 117.569 84.898 117.569 78.719 C 117.569 69.06 118.175 67.768 123.615 65.853 C 126.556 64.818 128.133 64.701 136.965 64.867 C 147.889 65.072 150.366 65.608 153.184 68.377 C 154.685 69.851 154.824 70.752 154.824 79.026 C 154.824 87.875 154.782 88.097 152.863 89.61 C 149.553 92.219 146.78 92.727 136.221 92.654 C 130.923 92.618 125.897 92.46 125.052 92.304 Z M 145.429 88.398 C 149.206 87.094 150.51 84.642 150.51 78.839 C 150.51 70.162 148.477 68.768 135.816 68.765 C 128.056 68.763 127.705 68.818 125.228 70.426 C 122.687 72.077 122.665 72.136 122.402 78.059 C 122.096 84.953 123.122 87.164 127.227 88.463 C 130.767 89.582 142.114 89.542 145.429 88.398 Z M 21.49 55.893 C 17.402 54.39 16 52.408 16 48.127 C 16 43.044 17.184 42.006 27.373 38.148 C 31.902 36.433 43.549 31.997 53.255 28.29 C 62.961 24.582 74.255 20.301 78.353 18.775 L 85.804 16 L 106.196 16 L 112.863 18.48 C 116.529 19.843 128.353 24.32 139.137 28.427 C 149.922 32.534 161.922 37.103 165.804 38.58 C 174.775 41.993 176 43.14 176 48.127 C 176 51.039 175.631 52.301 174.431 53.486 C 172.305 55.586 168.643 56.784 164.35 56.784 C 160.509 56.784 159.933 56.585 123.059 42.508 C 98.489 33.129 96.922 32.604 94.733 33.021 C 93.704 33.217 84.392 36.612 74.039 40.566 C 31.724 56.725 31.551 56.785 27.55 56.771 C 25.511 56.764 22.784 56.369 21.49 55.893 Z M 39.824 49.852 C 91.689 30.046 91.891 29.975 96 29.975 C 100.109 29.975 100.311 30.046 152.176 49.852 C 158.053 52.096 163.783 53.932 164.909 53.932 C 166.059 53.932 168.07 53.208 169.499 52.279 C 171.57 50.934 172.043 50.2 172.043 48.332 C 172.043 46.878 171.497 45.599 170.552 44.84 C 169.242 43.787 160.651 40.384 125.804 27.116 C 102.373 18.194 104.749 18.853 96 18.853 C 87.251 18.853 89.627 18.194 66.196 27.116 C 31.349 40.384 22.758 43.787 21.448 44.84 C 20.503 45.599 19.957 46.878 19.957 48.332 C 19.957 50.2 20.43 50.934 22.501 52.279 C 23.93 53.208 25.941 53.932 27.091 53.932 C 28.217 53.932 33.947 52.096 39.824 49.852 Z"
        fill="#000000"
        stroke-width="12"/>
</svg>
